X: 6123
T: Captain Keller's
R: reel
M: 4/4
K: Gdorian
A|:B2d/c/B fBbB|B2d/c/B AFcA|B2d/c/B fBbB|1 cAFA BGG2:|2 cAFA BGG2||
DGBG dGBG|DGBG AFcA|DGBG dGBG|cAFA BGG2|
DGBG dGBG|DGBG AFcA|Bcde fefd|cAFA BGG2||

